X:374
T:Kids, The
R:Reel
B:The Athole Collection
M:C|
L:1/8
K:A
g|acec ace2|acec ac ~B2|aced ceae|fdec ac~B:|
|:cAAe ceA2|cAAe ce~B2|cAAe ceae|fdec ac~B2:|

